X: 121
T:Galliard "Because of the Traitor I Die"
S:Arbeau, Orchesography, 1589
M:6/2
L:1/2
Q:3/2=60
K:GMin
% dorian/minor hexatonic
ddc B2A|AGG F2D|ddc B2A|GGF G3:|
AAA c2c|ccc d2d|ddc B2A|GGF G3:|

A Breton lullaby:

